X: 7
T: the Willow Tree
O: Miss Lucy Ray
R: march, air
%S: s:2 b:10(6+4)
B: Francis O'Neill: "Waifs and Strays" #6
Z: 2000 Paul Kinder <Ptk12142@aol.com>
Q: "Andante"
M: 4/4
L: 1/8
K: F
% = = = = = = = = = =
"^A"|: A2 | G3F D2D2 | F3G A2A2 |[1 G3F  D2C2 | D4- D2 :|[2 G2F2 D2C2 | D4- "^fine"D2 |]
"^B"[| A2 | c3G A2d2 | c3G A2d2 | c2A2 G2F2 | G4 "^>A2"z2 |]
